extensions/wp-bones/assets/menu-bar.svg

<svg clip-rule="evenodd" fill-rule="evenodd" stroke-linejoin="round" stroke-miterlimit="2" viewBox="0 0 256 256" xmlns="http://www.w3.org/2000/svg"><path d="m128 0c70.645 0 128 57.355 128 128s-57.355 128-128 128-128-57.355-128-128 57.355-128 128-128zm-29.284 163.687c-2.848 14.816-16.116 26.039-32.034 26.039-17.992 0-32.599-14.338-32.599-32 0-12.841 7.722-23.926 18.852-29.02-11.13-5.093-18.852-16.178-18.852-29.019 0-17.662 14.607-32 32.599-32s32.6 14.338 32.6 32h58.072c-.021-.469-.031-.94-.031-1.413 0-17.662 14.607-32 32.6-32 17.992 0 32.599 14.338 32.599 32 0 12.841-7.722 23.926-18.853 29.02 11.131 5.093 18.853 16.178 18.853 29.019 0 17.662-14.607 32-32.599 32-15.407 0-28.332-10.514-31.729-24.626z" fill="#fff"/></svg>

<?xml version="1.0" encoding="UTF-8" standalone="no"?>
<!DOCTYPE svg PUBLIC "-//W3C//DTD SVG 1.1//EN" "http://www.w3.org/Graphics/SVG/1.1/DTD/svg11.dtd">
<svg width="100%" height="100%" viewBox="0 0 256 256" version="1.1" xmlns="http://www.w3.org/2000/svg" xmlns:xlink="http://www.w3.org/1999/xlink" xml:space="preserve" xmlns:serif="http://www.serif.com/" style="fill-rule:evenodd;clip-rule:evenodd;stroke-linejoin:round;stroke-miterlimit:2;">
    <g>
        <g>
            <path d="M128,0C198.645,0 256,57.355 256,128C256,198.645 198.645,256 128,256C57.355,256 -0,198.645 -0,128C-0,57.355 57.355,0 128,0ZM98.716,163.687C95.868,178.503 82.6,189.726 66.682,189.726C48.69,189.726 34.083,175.388 34.083,157.726C34.083,144.885 41.805,133.8 52.935,128.706C41.805,123.613 34.083,112.528 34.083,99.687C34.083,82.025 48.69,67.687 66.682,67.687C84.674,67.687 99.282,82.025 99.282,99.687L157.354,99.687C157.333,99.218 157.323,98.747 157.323,98.274C157.323,80.612 171.93,66.274 189.923,66.274C207.915,66.274 222.522,80.612 222.522,98.274C222.522,111.115 214.8,122.2 203.669,127.294C214.8,132.387 222.522,143.472 222.522,156.313C222.522,173.975 207.915,188.313 189.923,188.313C174.516,188.313 161.591,177.799 158.194,163.687L98.716,163.687Z" style="fill:white;"/>
        </g>
    </g>
</svg>
